X: 22021
T: Kitty's Wedding
R: hornpipe
M: 4/4
K: Dmajor
|:fe|"D"d2Bd A2FA|"A"BAFA "D"D2 ed|"G"BdAB "D"dfbf|"Em"afdf "A"e2fe|
"D"d2Bd A2FA|"A"BAFA "D"D2 ed|"G"BdAB "D"dfbf|"A"afef "D"d2:|
|:fg|"D"afed "G"bafd|"D"Adfd "G"edBd|"D"DFAd "Bm"FAde|"Em"fdgf "A"e2fg|
"D"afed "G"bafd|"D"Adfd "G"edBd|"D"DFAd "Bm"FAdf|"A"eABc "D"d2:|

